dist/svgs/geomicons-open/icons/star.svg

<svg xmlns="http://www.w3.org/2000/svg" viewBox="0 0 32 32"><path d="M16 0l5 11 11 1-9 7 3 12-10-6-10 6 3-12-9-7 11-1"/></svg>

<svg id="star" xmlns="http://www.w3.org/2000/svg" viewBox="0 0 32 32" width="32" height="32" fill="currentcolor">
  <path d="M16 0 L21 11 L32 12 L23 19 L26 31 L16 25 L6 31 L9 19 L0 12 L11 11"></path>
</svg>
